X:1
T:Title
%%score ( 1 2 ) { ( 3 5 ) | 4 }
L:1/8
Q:1/4=105
M:4/4
K:Bb
V:1 treble nm="Choir Aahs, Unnamed-000"
V:2 treble 
V:3 bass nm="Church Organ, Unnamed-001"
V:5 bass 
V:4 bass 
V:1
 [Dd][Dd] [Ed]2 [Ec][EB] [Ed]2 | [Ec][Ec] [Dc]2 [DB]D [DA]2 | [DG][DG] [EG]2 [EF]E [CG]2 | %3
w: By~Peter~Christian~Lutkin,~circa~1905 * * * * *|||
 [CF][CF] [B,F]2 [B,E][B,D] [B,F]2 | [DF][DF] [D^F]2 [DF][DA] [Dd]2 | %5
w: ||
 [Gc][Gc] [Gc]2 [GB][GA] [GB]2 | z2 d2 z4 | z2 cc- c z z2 |] %8
w: |||
V:2
 x8 | x8 | x8 | x8 | x8 | x8 | [=Ec][Ec]FB [Ae][G=e] [Ff]>[Fd] | [FB]2 G2 A[Ad] [DB]2 |] %8
V:3
 F,F, G,2 G,G, A,2 | F,F, F,2 F,F, C2 | B,B, A,2 A,A, A,2 | A,A, F,2 F,F, F,2 | %4
 B,B, A,2[K:treble] CC A,2 | A,D E2 DC[K:bass] B,2 | B,B, B,2 C[K:treble]_D D>F | %7
 z2 z[K:bass] E- E[K:treble] z z2 |] %8
V:4
 B,,B,, B,,2 B,,B,, B,,2 | B,,B,, B,,2 B,,B,, B,,2 | B,,B,, C,2 C,C, E,2 | E,E, D,2 C,B,, D,2 | %4
 D,D, D,2 D,=E, ^F,2 | D,D, G,2 G,G, G,2 | G,G, F,2 F,F, F,>F, | F,2 F,2 z F, B,,2 |] %8
V:5
 x8 | x8 | x8 | x8 | x4[K:treble] x4 | x6[K:bass] x2 | x5[K:treble] x3 | %7
 D2 .E2[K:bass] F,[K:treble]F B,2 |] %8

